X: 5
T: West Clare
R: reel
M: 4/4
L: 1/8
K: Amaj
|: f2 ec ~B3 A | FB (3BBB Bcde | f2 ed ~B3 A | EA (3AAA ABce :||: ~f3 f fece | fB (3BBB fece | ~f3 f fece | (3ffe ge a z e2 :|


Tune 999	Setting 14208

